img/orders.svg

<svg fill="none" height="16" viewBox="0 0 16 16" width="16" xmlns="http://www.w3.org/2000/svg"><path clip-rule="evenodd" d="m9.01396 1.48963c-.6506-.26378-1.37836-.26378-2.02896 0l-4.99861 2.02731c-.25222.10216-.4682.2773-.62027.50297s-.23331.4916-.23331.76373v6.43396c0 .2722.08124.5381.23331.7638.15206.2256.36808.4008.62027.5029l4.99861 2.0267c.6506.2638 1.37836.2638 2.02896 0l4.99864-2.0267c.2521-.1021.468-.2771.62-.5026.1521-.2255.2334-.4914.2335-.7634v-6.43532c0-.27213-.0812-.53806-.2333-.76374-.152-.22565-.368-.4008-.6202-.50297zm2.16384 3.58121 1.779-.68653-4.39431-1.78186-.00191-.00171c-.06931-.02796-.14019-.05053-.21202-.06772-.03417-.00818-.06856-.01514-.1031-.02088-.27043-.04473-.5502-.01483-.80814.0897l-1.27667.518zm-8.84382.09592 5.1655 2.00888v6.24716c-.02094-.0073-.04187-.0151-.06216-.0236l-4.99934-2.0267c-.03066-.0124-.05693-.0337-.07545-.0612-.01852-.0274-.02846-.0597-.02855-.0928zm11.33212.0162-5.16545 1.99421v6.24603c.01934-.0068.03853-.0146.05756-.0224l5.00389-2.0285c.0308-.0125.0572-.0339.0757-.0614.0185-.0276.0284-.0601.0283-.0933zm-8.85578-1.51632-1.74967.7092 4.93983 1.921 1.793-.69187z" fill="#247aae" fill-rule="evenodd"/></svg>

<svg width="16" height="16" viewBox="0 0 16 16" fill="none" xmlns="http://www.w3.org/2000/svg">
<path fill-rule="evenodd" clip-rule="evenodd" d="M9.01396 1.48963C8.36336 1.22585 7.6356 1.22585 6.985 1.48963L1.98639 3.51694C1.73417 3.6191 1.51819 3.79424 1.36612 4.01991C1.21405 4.24558 1.13281 4.51151 1.13281 4.78364V11.2176C1.13281 11.4898 1.21405 11.7557 1.36612 11.9814C1.51818 12.207 1.7342 12.3822 1.98639 12.4843L6.985 14.511C7.6356 14.7748 8.36336 14.7748 9.01396 14.511L14.0126 12.4843C14.2647 12.3822 14.4806 12.2072 14.6326 11.9817C14.7847 11.7562 14.866 11.4903 14.8661 11.2183V4.78298C14.8661 4.51085 14.7849 4.24492 14.6328 4.01924C14.4808 3.79359 14.2648 3.61844 14.0126 3.51627L9.01396 1.48963ZM11.1778 5.07084L12.9568 4.38431L8.56249 2.60245L8.56058 2.60074C8.49127 2.57278 8.42039 2.55021 8.34856 2.53302C8.31439 2.52484 8.28 2.51788 8.24546 2.51214C7.97503 2.46741 7.69526 2.49731 7.43732 2.60184L6.16065 3.11984L11.1778 5.07084ZM2.33398 5.16676L7.49948 7.17564V13.4228C7.47854 13.4155 7.45761 13.4077 7.43732 13.3992L2.43798 11.3725C2.40732 11.3601 2.38105 11.3388 2.36253 11.3113C2.34401 11.2839 2.33407 11.2516 2.33398 11.2185V5.16676ZM13.6661 5.18296L8.50065 7.17717V13.4232C8.51999 13.4164 8.53918 13.4086 8.55821 13.4008L13.5621 11.3723C13.5929 11.3598 13.6193 11.3384 13.6378 11.3109C13.6563 11.2833 13.6662 11.2508 13.6661 11.2176V5.18296ZM4.81032 3.66664L3.06065 4.37584L8.00048 6.29684L9.79348 5.60497L4.81032 3.66664Z" fill="#247AAE"/>
</svg>
